build/img/whatsapp.svg

<svg width="27" height="27" viewBox="0 0 27 27" fill="none" xmlns="http://www.w3.org/2000/svg">
<path d="M12.5244 0.0317421C10.4888 0.226858 8.95427 0.669828 7.28787 1.5294C4.74607 2.84776 2.6947 4.94131 1.4238 7.51475C0.933374 8.50088 0.706616 9.10733 0.448218 10.0776C0.131812 11.3011 0.0368896 12.0446 0.0316162 13.3946C0.0316162 14.0696 0.0579834 14.7974 0.0948974 15.0821C0.384936 17.2442 1.05994 19.1058 2.19373 20.846L2.57341 21.4314L1.73494 23.9046C1.27087 25.2704 0.901733 26.3884 0.91228 26.3989C0.922827 26.4095 2.07244 26.0509 3.47517 25.6026C4.8779 25.1544 6.04333 24.7853 6.0697 24.7853C6.0908 24.7853 6.30701 24.9065 6.54958 25.0595C6.79216 25.2071 7.29841 25.4814 7.67283 25.6606C11.0847 27.2901 14.9818 27.4325 18.4728 26.0456C22.4279 24.4794 25.4654 21.0464 26.5517 16.9226C26.884 15.6569 26.9631 14.9661 26.9631 13.5001C26.9631 12.0341 26.884 11.3433 26.5517 10.0776C25.2756 5.2419 21.3996 1.48194 16.5058 0.337601C15.6832 0.147757 14.8289 0.0475616 13.79 0.0317421C13.2099 0.0211945 12.6404 0.0211945 12.5244 0.0317421ZM9.30759 6.28604C9.39724 6.3335 9.51853 6.46006 9.58181 6.57608C9.73474 6.85557 11.0215 9.94053 11.0584 10.1304C11.1058 10.3677 10.8685 10.7737 10.3465 11.3644C9.79802 11.9813 9.682 12.1765 9.72947 12.398C9.81911 12.7987 11.0373 14.4177 11.7914 15.1296C12.9568 16.2317 14.7181 17.2812 15.5039 17.3392C15.9099 17.3655 16.0523 17.2548 16.6746 16.4321C16.9541 16.0577 17.2494 15.6833 17.339 15.5989C17.5394 15.3933 17.84 15.3511 18.1828 15.4776C18.6152 15.6411 21.2677 16.9331 21.4576 17.0755L21.6369 17.2073L21.6052 17.7663C21.5314 19.2007 21.0252 19.9442 19.6963 20.5929C18.4306 21.2099 17.4392 21.194 15.5039 20.5243C12.8988 19.6226 11.5224 18.763 9.65036 16.8804C8.71169 15.9417 8.04724 15.1454 7.28787 14.0538C6.03279 12.2608 5.5529 10.8739 5.69529 9.46592C5.8113 8.3374 6.20681 7.5042 7.0031 6.70791C7.38806 6.32295 7.88904 6.16475 8.64841 6.19111C8.97009 6.20166 9.2074 6.2333 9.30759 6.28604Z" fill="#17191D"/>
</svg>

<svg width="27" height="27" fill="none" xmlns="http://www.w3.org/2000/svg"><path d="M12.524.032C10.49.227 8.954.67 7.288 1.529a13.438 13.438 0 00-5.864 5.986C.934 8.5.707 9.107.448 10.078.132 11.3.037 12.045.032 13.395c0 .675.026 1.402.063 1.687.29 2.162.965 4.024 2.099 5.764l.38.585-.84 2.474c-.463 1.365-.832 2.483-.822 2.494.01.01 1.16-.348 2.563-.796 1.403-.449 2.568-.818 2.595-.818.02 0 .237.122.48.274.242.148.748.422 1.123.602a13.47 13.47 0 0010.8.385c3.955-1.567 6.992-5 8.079-9.123.332-1.266.411-1.957.411-3.423s-.079-2.157-.411-3.422C25.276 5.242 21.4 1.482 16.506.338c-.823-.19-1.677-.29-2.716-.306a23.4 23.4 0 00-1.266 0zM9.308 6.286c.09.048.21.174.274.29.153.28 1.44 3.365 1.476 3.554.048.238-.19.644-.711 1.234-.549.617-.665.813-.618 1.034.09.4 1.308 2.02 2.062 2.732 1.166 1.102 2.927 2.151 3.713 2.21.406.026.548-.085 1.17-.908.28-.374.575-.749.665-.833.2-.206.501-.248.844-.121.432.163 3.085 1.455 3.275 1.598l.179.131-.032.56c-.074 1.434-.58 2.177-1.909 2.826-1.265.617-2.257.601-4.192-.069-2.605-.901-3.982-1.761-5.854-3.644a19.242 19.242 0 01-2.362-2.826c-1.255-1.793-1.735-3.18-1.593-4.588.116-1.129.512-1.962 1.308-2.758.385-.385.886-.543 1.645-.517.322.01.56.042.66.095z" fill="#17191D"/></svg>
